sldassets/icons/standard/job_profile.svg

<?xml version="1.0"?><svg xmlns="http://www.w3.org/2000/svg" width="100" height="100" viewBox="0 0 100 100"><path fill="#fff" d="m37.3 31.9h21.8c1.1 0 2-0.9 2-2v-4c0-3.3-2.7-5.9-5.9-5.9h-13.9c-3.3 0-5.9 2.7-5.9 5.9v4c-0.1 1.1 0.8 2 1.9 2z m32.7-7h-2c-0.6 0-1 0.4-1 1v4c0 4.4-3.6 7.9-7.9 7.9h-21.8c-4.4 0-7.9-3.6-7.9-7.9v-4c0-0.6-0.4-1-1-1h-2c-3.3 0-5.9 2.7-5.9 5.9v40.6c0 3.3 2.7 5.9 5.9 5.9h20c2.8 0 3.1-2.3 3.1-3.1v-21.4c0-2.3 1.3-2.8 2-2.8h21.6c2.4 0 2.8-2.1 2.8-2.8v-16.2c0.1-3.4-2.6-6.1-5.9-6.1z m8.4 35.5h-21.8c-0.6 0-1.1-0.5-1.1-1.1v-2.2c0-0.6 0.5-1.1 1.1-1.1h21.8c0.6 0 1.1 0.5 1.1 1.1v2.2c0 0.6-0.5 1.1-1.1 1.1z m0 9.8h-21.8c-0.6 0-1.1-0.5-1.1-1.1v-2.2c0-0.6 0.5-1.1 1.1-1.1h21.8c0.6 0 1.1 0.5 1.1 1.1v2.2c0 0.6-0.5 1.1-1.1 1.1z m0 9.8h-21.8c-0.6 0-1.1-0.5-1.1-1.1v-2.2c0-0.6 0.5-1.1 1.1-1.1h21.8c0.6 0 1.1 0.5 1.1 1.1v2.2c0 0.6-0.5 1.1-1.1 1.1z"></path></svg>

<?xml version="1.0" encoding="utf-8"?>
<!-- Generator: Adobe Illustrator 23.0.2, SVG Export Plug-In . SVG Version: 6.00 Build 0)  -->
<svg version="1.1" id="Layer_1" xmlns="http://www.w3.org/2000/svg" xmlns:xlink="http://www.w3.org/1999/xlink" x="0px" y="0px"
	 width="100px" height="100px" viewBox="0 0 100 100" enable-background="new 0 0 100 100" xml:space="preserve">
<path fill="#FFFFFF" d="M37.3,31.9h21.8c1.1,0,2-0.9,2-2v-4c0-3.3-2.7-5.9-5.9-5.9H41.3c-3.3,0-5.9,2.7-5.9,5.9v4
	C35.3,31,36.2,31.9,37.3,31.9z"/>
<path fill="#FFFFFF" d="M70,24.9h-2c-0.6,0-1,0.4-1,1v4c0,4.4-3.6,7.9-7.9,7.9H37.3c-4.4,0-7.9-3.6-7.9-7.9v-4c0-0.6-0.4-1-1-1h-2
	c-3.3,0-5.9,2.7-5.9,5.9v40.6c0,3.3,2.7,5.9,5.9,5.9h20c2.8,0,3.1-2.3,3.1-3.1V52.8c0-2.3,1.3-2.8,2-2.8h21.6c2.4,0,2.8-2.1,2.8-2.8
	V31C76,27.6,73.3,24.9,70,24.9z"/>
<path fill="#FFFFFF" d="M78.4,60.4H56.6c-0.6,0-1.1-0.5-1.1-1.1v-2.2c0-0.6,0.5-1.1,1.1-1.1h21.8c0.6,0,1.1,0.5,1.1,1.1v2.2
	C79.5,59.9,79,60.4,78.4,60.4z M78.4,70.2H56.6c-0.6,0-1.1-0.5-1.1-1.1v-2.2c0-0.6,0.5-1.1,1.1-1.1h21.8c0.6,0,1.1,0.5,1.1,1.1v2.2
	C79.5,69.7,79,70.2,78.4,70.2z M78.4,80H56.6c-0.6,0-1.1-0.5-1.1-1.1v-2.2c0-0.6,0.5-1.1,1.1-1.1h21.8c0.6,0,1.1,0.5,1.1,1.1v2.2
	C79.5,79.5,79,80,78.4,80z"/>
</svg>
